docs/img/vk.svg

<svg width="18" height="11" viewBox="0 0 18 11" fill="none" xmlns="http://www.w3.org/2000/svg">
<path fill-rule="evenodd" clip-rule="evenodd" d="M16.8714 1.16018C16.9862 0.779672 16.8714 0.5 16.3255 0.5H14.5204C14.0614 0.5 13.8499 0.741569 13.7352 1.00803C13.7352 1.00803 12.8172 3.23423 11.5167 4.68031C11.096 5.09892 10.9048 5.23196 10.6753 5.23196C10.5605 5.23196 10.3944 5.09892 10.3944 4.71842V1.16018C10.3944 0.703468 10.2612 0.5 9.87869 0.5H7.04209C6.75534 0.5 6.58282 0.711935 6.58282 0.912836C6.58282 1.34581 7.23292 1.44562 7.29997 2.66335V5.30829C7.29997 5.88816 7.19475 5.99336 6.96525 5.99336C6.35332 5.99336 4.86487 3.75701 3.98192 1.19828C3.80889 0.700901 3.63534 0.5 3.174 0.5H1.36889C0.853149 0.5 0.75 0.741569 0.75 1.00803C0.75 1.48372 1.36206 3.84322 3.59949 6.96374C5.09129 9.09463 7.19269 10.25 9.10508 10.25C10.2526 10.25 10.3944 9.99342 10.3944 9.55146V7.94079C10.3944 7.42763 10.5031 7.32526 10.8663 7.32526C11.1343 7.32526 11.5932 7.45842 12.6642 8.48589C13.8881 9.70349 14.0898 10.25 14.7783 10.25H16.5834C17.0991 10.25 17.357 9.99342 17.2082 9.48706C17.0455 8.98237 16.4612 8.25035 15.6857 7.38235C15.265 6.88753 14.6339 6.35475 14.4428 6.08842C14.175 5.74588 14.2514 5.59373 14.4428 5.28943C14.4428 5.28943 16.6419 2.20689 16.8714 1.16031V1.16018Z" fill="#222222"/>
</svg>

<svg width="18" height="11" fill="none" xmlns="http://www.w3.org/2000/svg"><path fill-rule="evenodd" clip-rule="evenodd" d="M16.871 1.16c.115-.38 0-.66-.545-.66H14.52c-.459 0-.67.242-.785.508 0 0-.918 2.226-2.218 3.672-.421.419-.612.552-.842.552-.115 0-.28-.133-.28-.514V1.16c0-.457-.134-.66-.516-.66H7.042c-.287 0-.46.212-.46.413 0 .433.65.533.718 1.75v2.645c0 .58-.105.685-.335.685-.612 0-2.1-2.236-2.983-4.795C3.809.701 3.635.5 3.174.5H1.369C.853.5.75.742.75 1.008c0 .476.612 2.835 2.85 5.956 1.491 2.13 3.593 3.286 5.505 3.286 1.148 0 1.29-.257 1.29-.699v-1.61c0-.513.108-.616.471-.616.268 0 .727.133 1.798 1.16 1.224 1.218 1.426 1.765 2.114 1.765h1.805c.516 0 .774-.257.625-.763-.162-.505-.747-1.237-1.522-2.105-.421-.494-1.052-1.027-1.243-1.294-.268-.342-.192-.494 0-.799 0 0 2.199-3.082 2.428-4.129Z" fill="#222"/></svg>
